packages/bezier-icons/icons/exclusive.svg

<svg width="24" height="24" viewBox="0 0 24 24" fill="none" xmlns="http://www.w3.org/2000/svg">
<path fill-rule="evenodd" clip-rule="evenodd" d="M8.36568 10.5045L11.2929 7.57734C11.6834 7.18682 11.6834 6.55365 11.2929 6.16313L8.36569 3.23592C7.86171 2.73195 7 3.08888 7 3.8016V6C3.68629 6 1 8.68629 1 12C1 15.3137 3.68629 18 7 18H9C9.55228 18 10 17.5523 10 17C10 16.4477 9.55228 16 9 16H7C4.79086 16 3 14.2091 3 12C3 9.79086 4.79086 8 7 8V9.93886C7 10.6516 7.86171 11.0085 8.36568 10.5045ZM13.016 7.00009C13.016 7.55238 13.4637 8.00009 14.016 8.00009H22.016C22.5683 8.00009 23.016 7.55238 23.016 7.00009C23.016 6.44781 22.5683 6.00009 22.016 6.00009H14.016C13.4637 6.00009 13.016 6.44781 13.016 7.00009ZM13 12.0001C13 12.5524 13.4477 13.0001 14 13.0001H22C22.5523 13.0001 23 12.5524 23 12.0001C23 11.4478 22.5523 11.0001 22 11.0001H14C13.4477 11.0001 13 11.4478 13 12.0001ZM22.016 18.0001C22.5683 18.0001 23.016 17.5524 23.016 17.0001C23.016 16.4478 22.5683 16.0001 22.016 16.0001H14.016C13.4637 16.0001 13.016 16.4478 13.016 17.0001C13.016 17.5524 13.4637 18.0001 14.016 18.0001H22.016Z" fill="#313234"/>
</svg>

<svg xmlns="http://www.w3.org/2000/svg" width="24" height="24" fill="none" viewBox="0 0 24 24"><path fill="#313234" fill-rule="evenodd" d="m8.366 10.505 2.927-2.928a1 1 0 0 0 0-1.414L8.366 3.236A.8.8 0 0 0 7 3.802V6a6 6 0 1 0 0 12h2a1 1 0 1 0 0-2H7a4 4 0 0 1 0-8v1.939a.8.8 0 0 0 1.366.566M13.016 7a1 1 0 0 0 1 1h8a1 1 0 1 0 0-2h-8a1 1 0 0 0-1 1M13 12a1 1 0 0 0 1 1h8a1 1 0 1 0 0-2h-8a1 1 0 0 0-1 1m9.016 6a1 1 0 1 0 0-2h-8a1 1 0 1 0 0 2z" clip-rule="evenodd"/></svg>
